X: 25435
T: Marcha De L'Anton El Nenu
R: reel
M: 4/4
K: Gmajor
|:"Bm" B4 "C" d2 (3cdc|"Bm" B6 AB|"C" c4 "C" B2c2|"Am" A6GA|
"Bm" B4 "C" d2 (3cdc|"G" B6G/2A/2B/2c/2|"C" B3A/2c/2 "D" A3F/2A/2|"G" G6A2:|
|:"C" c4 "C" B2c2|"Am" A4 "C" B2c2|"G" d3-d/2d/2 "C" e2c2|"G" d2 "C" ed/2c/2HB4|
"C" e4 "C" c2e2|"G" d3d "G" gfgf|"G" d4 "C" c3c|"G" d2 "C" ed/2c/2 HB4:|

